X: 29
T: MEDLEY: Lochaber Badger Set
T: Lochaber Badger [Reel]
C: C: Fred Morrison / Trad.; S: Various
C: Set Leaders: Andrey
Z: Oleg Naumov arr.; MikkinNotts / Benjamin Glauser at The Session
N: https://thesession.org/members/26966/sets/96721
R: Reel
M: 4/4
L: 1/8
Q: 1/2=82
K: Emin
|:"Em"B2 AG AG "C"E2-|E2 DE GDEG|"Bm"B2 AG AG "Em"E2|ED"(G/B)"GD "Em"(E2 E2):||
|:"Em"E2 DE GE "Am"(A2|A2) AG A/B/d "Bm"(B2|B2) AG "C (Em)"AG E2|"G"EDGD "Em"(E2 E2):||
T: Kid on the Mountain [Slip Jig]
R: Slip Jig
M: 9/8
K: Emin
|:"Em"E3 FEF G2F|"Em"E3 BcA BGE|"Em"EDE FEF G2A|"G"BAG "D"FAG FED:||
|:"G (C)"BGB "D"AFA "G"G2D|"G"GAB dge dBA|"G (C)"BGB "D"AFA "G"G2A|"G"BAG FAG "D"FED:||
|:"Em"gfg eBB e2f|"Em"gfg efg "D"afd|"Em"gfg eBB e2a|"C"bag fag "D"fed:||
|:"Em"eBB e2f g2f|"Em"eBB efg "D"afd|"Em"eBB e2f g2a|"C"bag fag "D"fed:||
|:"C"edB "D"dBA "G"G2D|"G"GAB dge dBd|"C"edB "D"dBA "G"G2A|"G"BAG "D"FAG FED:||

